src/images/aspas.svg

<svg width="156" height="121" viewBox="0 0 156 121" fill="none" xmlns="http://www.w3.org/2000/svg">
<path d="M156 91.0519C156 95.2382 155.2 99.183 153.6 102.886C152 106.428 149.84 109.568 147.12 112.305C144.4 115.043 141.2 117.216 137.52 118.826C133.84 120.275 130 121 126 121C120.72 121 115.68 120.034 110.88 118.102C106.24 116.17 102.16 113.352 98.64 109.649C95.12 105.784 92.32 101.035 90.24 95.3992C88.16 89.7638 87.12 83.1623 87.12 75.5948C87.12 56.5955 92.64 40.6554 103.68 27.7745C114.88 14.8935 130.24 5.6354 149.76 0V8.45309C141.76 11.6733 135.12 15.6181 129.84 20.2874C124.72 24.7957 120.64 29.5456 117.6 34.5369C114.56 39.3673 112.4 44.1171 111.12 48.7864C109.84 53.2947 109.2 57.159 109.2 60.3792C109.2 61.6673 109.44 63.1164 109.92 64.7265C110.4 66.1757 111.44 66.9002 113.04 66.9002C113.68 66.9002 114.4 66.6587 115.2 66.1757C116 65.6926 116.96 65.1291 118.08 64.485C119.36 63.841 120.88 63.2774 122.64 62.7944C124.4 62.3114 126.64 62.0699 129.36 62.0699C132.88 62.0699 136.24 62.7944 139.44 64.2435C142.8 65.6926 145.68 67.7858 148.08 70.523C150.48 73.0991 152.4 76.1584 153.84 79.7006C155.28 83.2429 156 87.0266 156 91.0519ZM68.88 91.0519C68.88 95.2382 68.08 99.183 66.48 102.886C64.88 106.428 62.72 109.568 60 112.305C57.28 115.043 54.08 117.216 50.4 118.826C46.72 120.275 42.88 121 38.88 121C33.6 121 28.56 120.034 23.76 118.102C19.12 116.17 15.04 113.352 11.52 109.649C8 105.784 5.2 101.035 3.12 95.3992C1.04 89.7638 0 83.1623 0 75.5948C0 56.5955 5.6 40.6554 16.8 27.7745C28 14.8935 43.36 5.6354 62.88 0V8.45309C54.88 11.6733 48.24 15.6181 42.96 20.2874C37.84 24.7957 33.68 29.5456 30.48 34.5369C27.44 39.3673 25.28 44.1171 24 48.7864C22.72 53.2947 22.08 57.159 22.08 60.3792C22.08 61.6673 22.32 63.1164 22.8 64.7265C23.28 66.1757 24.4 66.9002 26.16 66.9002C26.8 66.9002 27.52 66.6587 28.32 66.1757C29.12 65.6926 30.08 65.1291 31.2 64.485C32.48 63.841 34 63.2774 35.76 62.7944C37.52 62.3114 39.76 62.0699 42.48 62.0699C46 62.0699 49.36 62.7944 52.56 64.2435C55.76 65.6926 58.56 67.7858 60.96 70.523C63.36 73.0991 65.28 76.1584 66.72 79.7006C68.16 83.2429 68.88 87.0266 68.88 91.0519Z" fill="white"/>
</svg>

<svg width="156" height="121" fill="none" xmlns="http://www.w3.org/2000/svg"><path d="M156 91.052c0 4.186-.8 8.131-2.4 11.834a31.854 31.854 0 0 1-6.48 9.419c-2.72 2.738-5.92 4.911-9.6 6.521A31.165 31.165 0 0 1 126 121c-5.28 0-10.32-.966-15.12-2.898-4.64-1.932-8.72-4.75-12.24-8.453-3.52-3.865-6.32-8.614-8.4-14.25-2.08-5.635-3.12-12.237-3.12-19.804 0-19 5.52-34.94 16.56-47.82C114.88 14.894 130.24 5.635 149.76 0v8.453c-8 3.22-14.64 7.165-19.92 11.834-5.12 4.509-9.2 9.259-12.24 14.25-3.04 4.83-5.2 9.58-6.48 14.25-1.28 4.508-1.92 8.372-1.92 11.592 0 1.288.24 2.737.72 4.348.48 1.449 1.52 2.173 3.12 2.173.64 0 1.36-.241 2.16-.724s1.76-1.047 2.88-1.691c1.28-.644 2.8-1.208 4.56-1.69 1.76-.484 4-.725 6.72-.725 3.52 0 6.88.724 10.08 2.173a23.974 23.974 0 0 1 8.64 6.28c2.4 2.576 4.32 5.635 5.76 9.178 1.44 3.542 2.16 7.326 2.16 11.35Zm-87.12 0c0 4.186-.8 8.131-2.4 11.834a31.854 31.854 0 0 1-6.48 9.419c-2.72 2.738-5.92 4.911-9.6 6.521A31.165 31.165 0 0 1 38.88 121c-5.28 0-10.32-.966-15.12-2.898-4.64-1.932-8.72-4.75-12.24-8.453-3.52-3.865-6.32-8.614-8.4-14.25C1.04 89.764 0 83.162 0 75.595c0-19 5.6-34.94 16.8-47.82C28 14.894 43.36 5.635 62.88 0v8.453c-8 3.22-14.64 7.165-19.92 11.834-5.12 4.509-9.28 9.259-12.48 14.25-3.04 4.83-5.2 9.58-6.48 14.25-1.28 4.508-1.92 8.372-1.92 11.592 0 1.288.24 2.737.72 4.348.48 1.449 1.6 2.173 3.36 2.173.64 0 1.36-.241 2.16-.724s1.76-1.047 2.88-1.691c1.28-.644 2.8-1.208 4.56-1.69 1.76-.484 4-.725 6.72-.725 3.52 0 6.88.724 10.08 2.173 3.2 1.45 6 3.543 8.4 6.28 2.4 2.576 4.32 5.635 5.76 9.178 1.44 3.542 2.16 7.326 2.16 11.35Z" fill="#fff"/></svg>
